src/icons/outline/calculator.svg

<svg width="24" height="24" viewBox="0 0 24 24" fill="none" xmlns="http://www.w3.org/2000/svg">
<path d="M9 7H15M15 17V14M12 17H12.01M9 17H9.01M9 14H9.01M12 14H12.01M15 11H15.01M12 11H12.01M9 11H9.01M7 21H17C18.1046 21 19 20.1046 19 19V5C19 3.89543 18.1046 3 17 3H7C5.89543 3 5 3.89543 5 5V19C5 20.1046 5.89543 21 7 21Z" stroke="#374151" stroke-width="2" stroke-linecap="round" stroke-linejoin="round"/>
</svg>

<svg xmlns="http://www.w3.org/2000/svg" fill="none" viewBox="0 0 24 24" stroke="currentColor">
  <path stroke-linecap="round" stroke-linejoin="round" stroke-width="2" d="M9 7h6m0 10v-3m-3 3h.01M9 17h.01M9 14h.01M12 14h.01M15 11h.01M12 11h.01M9 11h.01M7 21h10a2 2 0 002-2V5a2 2 0 00-2-2H7a2 2 0 00-2 2v14a2 2 0 002 2z"/>
</svg>
